X:1
T:Was Gutes dir die Götter senden
T:Was Gutes dir die Götter senden
T:Joseph Haydn
C:Joseph Haydn
L:1/8
M:3/4
K:G
V:1 treble nm="Piano" snm="Pno."
V:1
"^1." G/ B3/2 G/ | A7/2 A/ d3/2 c/ | (c>B) B2"^2." G2 | G3/2 F/ F3/2 E/ F3/2 F/ | %4
w: Was Gu- tes|dir die Göt- ter|sen- * den, be-|wahr' es treu in rei- nen|
 (F>G) G2"^3." d2 | D4 D2 | (D>G) G2"^4." B2 | d4 c2 | (A>B) B |] %9
w: Hän- * den, be-|wahr', be-|wahr' * es in|rei- nen|Hän- * den.|

